images_sukapura_svg/cmd/sc_selectobject.svg

<svg viewBox="0 0 16 16" xmlns="http://www.w3.org/2000/svg">/&amp;amp;gt;<g fill-rule="evenodd"><path d="m2.4453125-1c-.7663717.02540224-1.44757478.72724665-1.44726562 1.49414062v14.12890638c-.00034705.588965.38300092 1.158881.92773432 1.382812.5447335.223932 1.2188306.08689 1.6328126-.332031l2.0625-2.080078.96875 1.919922a1.0015558 1.0015558 0 0 0 .2832031.339844c.3634954.505162.8402393.881318 1.3574219 1.027343.6426921.181463 1.2970469.146339 1.8906252-.0332.595992-.180268 1.225565-.539792 1.652344-1.171875.460989-.682748.563264-1.578603.248046-2.412109a1.0015558 1.0015558 0 0 0 -.0078-.01758c-.01362-.03414-.02883-.06656-.04492-.09961l-.0078-.01758-1.171876-2.445312h2.716797c.617147.000835 1.211552-.422836 1.414063-1.0058596.202416-.5827508-.002-1.2820289-.486328-1.6640625l-.002-.00195-11.009766-8.6914063a1.0015558 1.0015558 0 0 0 -.00195-.001953c-.2739345-.215473-.624292-.3297153-.9726384-.3183616z" fill="#98989d"/><path d="m2.4785156 0a.49419004.49419004 0 0 0 -.4785156.49414062v14.12890638a.49419004.49419004 0 0 0 .8457031.347656l3.0449219-3.068359 1.59375 3.160156-.021484-.04883c.1815644.4801.6051357.781779 1.0390625.904297s.8981329.101352 1.3300781-.0293c.4319448-.130649.8429818-.376002 1.1113278-.773438.268347-.397435.34616-.954566.140625-1.498046a.49419004.49419004 0 0 0 -.01758-.03906l-1.8652325-3.8964824h4.3046871a.49419004.49419004 0 0 0 .306641-.8828125l-11.0117188-8.69335935a.49419004.49419004 0 0 0 -.3222656-.10546875z" fill="#fff"/><path d="m2.9707031 1.4765625v11.9902345l2.7148438-2.736328a.47608227.47608227 0 0 1 .7636719.121093l1.9023437 3.773438a.47608227.47608227 0 0 1 .019531.04687c.058539.15479.1754025.25063.3945312.3125s.5222897.05666.7871094-.02344.4816086-.231262.5878906-.388672c.105608-.156411.145735-.313576.03516-.609375l-2.1875035-4.5703049a.47608227.47608227 0 0 1 .4296876-.6816406h3.7167972z"/></g></svg>

<?xml version="1.0" encoding="UTF-8" standalone="no"?>
<svg
   xmlns:dc="http://purl.org/dc/elements/1.1/"
   xmlns:cc="http://creativecommons.org/ns#"
   xmlns:rdf="http://www.w3.org/1999/02/22-rdf-syntax-ns#"
   xmlns:svg="http://www.w3.org/2000/svg"
   xmlns="http://www.w3.org/2000/svg"
   xmlns:sodipodi="http://sodipodi.sourceforge.net/DTD/sodipodi-0.dtd"
   xmlns:inkscape="http://www.inkscape.org/namespaces/inkscape"
   viewBox="0 0 16 16"
   version="1.1"
   id="svg4"
   sodipodi:docname="sc_selectobject.svg"
   inkscape:version="0.92.3 (2405546, 2018-03-11)"><metadata
   id="metadata10">
  <rdf:RDF>
    <cc:Work
       rdf:about="">
      <dc:format>image/svg+xml</dc:format>
      <dc:type
         rdf:resource="http://purl.org/dc/dcmitype/StillImage" />
      <dc:title></dc:title>
    </cc:Work>
  </rdf:RDF>
</metadata>
<defs
   id="defs8" />
<sodipodi:namedview
   pagecolor="#ffffff"
   bordercolor="#666666"
   borderopacity="1"
   objecttolerance="10"
   gridtolerance="10"
   guidetolerance="10"
   inkscape:pageopacity="0"
   inkscape:pageshadow="2"
   inkscape:window-width="1366"
   inkscape:window-height="716"
   id="namedview6"
   showgrid="true"
   inkscape:snap-global="false"
   inkscape:zoom="20.85965"
   inkscape:cx="4.1013905"
   inkscape:cy="8.0639033"
   inkscape:window-x="-8"
   inkscape:window-y="-8"
   inkscape:window-maximized="1"
   inkscape:current-layer="svg4">
  <inkscape:grid
     type="xygrid"
     id="grid817" />
</sodipodi:namedview>


     /&amp;gt;
 <path
   sodipodi:type="inkscape:offset"
   inkscape:radius="1.0014557"
   inkscape:original="M 2.4785156 0 A 0.49419004 0.49419004 0 0 0 2 0.49414062 L 2 14.623047 A 0.49419004 0.49419004 0 0 0 2.8457031 14.970703 L 5.890625 11.902344 L 7.484375 15.0625 L 7.4628906 15.013672 C 7.644455 15.493772 8.0680263 15.795451 8.5019531 15.917969 C 8.9358799 16.040487 9.400086 16.019324 9.8320312 15.888672 C 10.263976 15.758023 10.675013 15.51267 10.943359 15.115234 C 11.211706 14.717799 11.289519 14.160668 11.083984 13.617188 A 0.49419004 0.49419004 0 0 0 11.066406 13.578125 L 9.2011719 9.6816406 L 13.505859 9.6816406 A 0.49419004 0.49419004 0 0 0 13.8125 8.7988281 L 2.8007812 0.10546875 A 0.49419004 0.49419004 0 0 0 2.4785156 0 z "
   style="fill:#98989d;fill-opacity:1;fill-rule:evenodd;stroke:none;stroke-width:0.98920298;stroke-linejoin:round"
   id="path827"
   d="M 2.4453125,-1 C 1.6789408,-0.97459776 0.99773772,-0.27275335 0.99804688,0.49414062 V 14.623047 c -3.4705e-4,0.588965 0.38300092,1.158881 0.92773432,1.382812 0.5447335,0.223932 1.2188306,0.08689 1.6328126,-0.332031 l 2.0625,-2.080078 0.96875,1.919922 a 1.0015558,1.0015558 0 0 0 0.2832031,0.339844 c 0.3634954,0.505162 0.8402393,0.881318 1.3574219,1.027343 0.6426921,0.181463 1.2970469,0.146339 1.8906252,-0.0332 0.595992,-0.180268 1.225565,-0.539792 1.652344,-1.171875 0.460989,-0.682748 0.563264,-1.578603 0.248046,-2.412109 a 1.0015558,1.0015558 0 0 0 -0.0078,-0.01758 c -0.01362,-0.03414 -0.02883,-0.06656 -0.04492,-0.09961 l -0.0078,-0.01758 -1.171876,-2.445312 h 2.716797 c 0.617147,8.35e-4 1.211552,-0.422836 1.414063,-1.0058596 0.202416,-0.5827508 -0.002,-1.2820289 -0.486328,-1.6640625 l -0.002,-0.00195 -11.009766,-8.6914063 a 1.0015558,1.0015558 0 0 0 -0.00195,-0.001953 C 3.1459695,-0.8971114 2.795612,-1.0113537 2.4472656,-1 Z" />
<path
   style="fill:#ffffff;fill-rule:evenodd;stroke:none;stroke-width:0.98920298;stroke-linejoin:round;fill-opacity:1"
   d="M 2.4785156,0 A 0.49419004,0.49419004 0 0 0 2,0.49414062 V 14.623047 a 0.49419004,0.49419004 0 0 0 0.8457031,0.347656 l 3.0449219,-3.068359 1.59375,3.160156 -0.021484,-0.04883 c 0.1815644,0.4801 0.6051357,0.781779 1.0390625,0.904297 0.4339268,0.122518 0.8981329,0.101352 1.3300781,-0.0293 0.4319448,-0.130649 0.8429818,-0.376002 1.1113278,-0.773438 0.268347,-0.397435 0.34616,-0.954566 0.140625,-1.498046 a 0.49419004,0.49419004 0 0 0 -0.01758,-0.03906 L 9.2011719,9.6816406 H 13.505859 A 0.49419004,0.49419004 0 0 0 13.8125,8.7988281 L 2.8007812,0.10546875 A 0.49419004,0.49419004 0 0 0 2.4785156,0 Z"
   id="path2" />
<path
   style="fill:#000000;fill-rule:evenodd;stroke:none;stroke-width:0.98920298;stroke-linejoin:round;fill-opacity:1"
   d="M 2.9707031,1.4765625 V 13.466797 l 2.7148438,-2.736328 a 0.47608227,0.47608227 0 0 1 0.7636719,0.121093 L 8.3515625,14.625 a 0.47608227,0.47608227 0 0 1 0.019531,0.04687 c 0.058539,0.15479 0.1754025,0.25063 0.3945312,0.3125 0.2191287,0.06187 0.5222897,0.05666 0.7871094,-0.02344 0.2648197,-0.0801 0.4816086,-0.231262 0.5878906,-0.388672 0.105608,-0.156411 0.145735,-0.313576 0.03516,-0.609375 L 7.9882812,9.3925781 A 0.47608227,0.47608227 0 0 1 8.4179688,8.7109375 h 3.7167972 z"
   id="path819" />
</svg>
